icon-themes/breeze_svg/cmd/sc_helplinesmove.svg

<svg viewBox="0 0 16 16" xmlns="http://www.w3.org/2000/svg">/&gt;<path d="m6 2v1h1v-1zm3 0v1h1v-1zm-3 2v1h1v-1zm3 0v1h1v-1zm-7 2v1h1v-1zm2 0v1h1v-1zm2 0v4h4v-4zm5 0v1h1v-1zm2 0v1h1v-1zm-11 3v1h1v-1zm2 0v1h1v-1zm7 0v1h1v-1zm2 0v1h1v-1zm-7 2v1h1v-1zm3 0v1h1v-1zm-3 2v1h1v-1zm3 0v1h1v-1z" fill="#4d4d4d"/></svg>

<svg xmlns="http://www.w3.org/2000/svg" viewBox="0 0 16 16">
     />
 <path 
     style="fill:#4d4d4d" 
     d="M 6 2 L 6 3 L 7 3 L 7 2 L 6 2 z M 9 2 L 9 3 L 10 3 L 10 2 L 9 2 z M 6 4 L 6 5 L 7 5 L 7 4 L 6 4 z M 9 4 L 9 5 L 10 5 L 10 4 L 9 4 z M 2 6 L 2 7 L 3 7 L 3 6 L 2 6 z M 4 6 L 4 7 L 5 7 L 5 6 L 4 6 z M 6 6 L 6 10 L 10 10 L 10 6 L 6 6 z M 11 6 L 11 7 L 12 7 L 12 6 L 11 6 z M 13 6 L 13 7 L 14 7 L 14 6 L 13 6 z M 2 9 L 2 10 L 3 10 L 3 9 L 2 9 z M 4 9 L 4 10 L 5 10 L 5 9 L 4 9 z M 11 9 L 11 10 L 12 10 L 12 9 L 11 9 z M 13 9 L 13 10 L 14 10 L 14 9 L 13 9 z M 6 11 L 6 12 L 7 12 L 7 11 L 6 11 z M 9 11 L 9 12 L 10 12 L 10 11 L 9 11 z M 6 13 L 6 14 L 7 14 L 7 13 L 6 13 z M 9 13 L 9 14 L 10 14 L 10 13 L 9 13 z "
     />
 </svg>
